app/dist/common/images/conx.svg

<svg fill="none" height="18" viewBox="0 0 18 18" width="18" xmlns="http://www.w3.org/2000/svg"><path d="m0 0h18v18h-18z" fill="#f0f3fa"/><path clip-rule="evenodd" d="m4.3903 4.78318 3.14633-1.78312c.08943.26506.49267.79518 1.39023.79518s1.34954-.53012 1.46344-.79518l3.0975 1.78312c-.3089.32129-.7805 1.14699-.1951 1.87951.5854.73253 1.3821.80321 1.7073.74699v3.49392c-.4553-.0401-1.4341.053-1.7073.747s.0163 1.3494.1951 1.5904l-3.0975 1.759c-.0244-.3373-.3513-1.012-1.46344-1.012-1.11219 0-1.39023.6747-1.39023 1.012l-3.14633-1.759c.27642-.2812.76097-.9928.4878-1.5904-.34146-.747-1.07317-.747-1.87804-.747v-3.49392c.30081-.0482 1-.26506 1.39024-.74699.4878-.6024.17073-1.73493 0-1.87951zm1.017.9282c-.15217-.26151-.06187-.5959.20169-.74688l1.55552-.89108c.26356-.15099.60058-.06139.75275.20012l.00885.01522c.15217.26151.06187.5959-.2017.74688l-1.55551.89108c-.26357.15098-.60058.06138-.75275-.20013zm7.1854.00001c.1522-.26151.0619-.5959-.2017-.74688l-1.5555-.89108c-.2636-.15098-.6006-.06138-.7528.20012l-.0088.01522c-.15218.26151-.0619.5959.2017.74688l1.5555.89108c.2636.15099.6006.06139.7527-.20012zm-6.9837 7.32421c-.26357-.151-.35387-.4854-.2017-.7469l.00885-.0152c.15217-.2615.48919-.3511.75275-.2001l1.55552.891c.26356.151.35386.4854.20169.7469l-.00885.0152c-.15217.2615-.48918.3511-.75275.2002zm6.9837-.7469c.1522.2615.0619.5959-.2017.7469l-1.5555.8911c-.2636.1509-.6006.0613-.7528-.2002l-.0088-.0152c-.15218-.2615-.0619-.5959.2017-.7469l1.5555-.891c.2636-.151.6006-.0614.7527.2001z" fill="#273857" fill-rule="evenodd"/><circle cx="8.99997" cy="9.00003" fill="#bacc59" r="3.00003"/></svg>

<!-- by TradingView --><svg width="18" height="18" viewBox="0 0 18 18" fill="none" xmlns="http://www.w3.org/2000/svg">
<rect width="18" height="18" fill="#F0F3FA"/>
<path fill-rule="evenodd" clip-rule="evenodd" d="M4.3903 4.78318L7.53663 3.00006C7.62606 3.26512 8.0293 3.79524 8.92686 3.79524C9.82442 3.79524 10.2764 3.26512 10.3903 3.00006L13.4878 4.78318C13.1789 5.10447 12.7073 5.93017 13.2927 6.66269C13.8781 7.39522 14.6748 7.4659 15 7.40968V10.9036C14.5447 10.8635 13.5659 10.9566 13.2927 11.6506C13.0195 12.3446 13.309 13 13.4878 13.241L10.3903 15C10.3659 14.6627 10.039 13.988 8.92686 13.988C7.81467 13.988 7.53663 14.6627 7.53663 15L4.3903 13.241C4.66672 12.9598 5.15127 12.2482 4.8781 11.6506C4.53664 10.9036 3.80493 10.9036 3.00006 10.9036V7.40968C3.30087 7.36148 4.00006 7.14462 4.3903 6.66269C4.8781 6.06029 4.56103 4.92776 4.3903 4.78318ZM5.4073 5.71138C5.25513 5.44987 5.34543 5.11548 5.60899 4.9645L7.16451 4.07342C7.42807 3.92243 7.76509 4.01203 7.91726 4.27354L7.92611 4.28876C8.07828 4.55027 7.98798 4.88466 7.72441 5.03564L6.1689 5.92672C5.90533 6.0777 5.56832 5.9881 5.41615 5.72659L5.4073 5.71138ZM12.5927 5.71139C12.7449 5.44988 12.6546 5.11549 12.391 4.96451L10.8355 4.07343C10.5719 3.92245 10.2349 4.01205 10.0827 4.27355L10.0739 4.28877C9.92172 4.55028 10.012 4.88467 10.2756 5.03565L11.8311 5.92673C12.0947 6.07772 12.4317 5.98812 12.5838 5.72661L12.5927 5.71139ZM5.609 13.0356C5.34543 12.8846 5.25513 12.5502 5.4073 12.2887L5.41615 12.2735C5.56832 12.012 5.90534 11.9224 6.1689 12.0734L7.72442 12.9644C7.98798 13.1154 8.07828 13.4498 7.92611 13.7113L7.91726 13.7265C7.76509 13.988 7.42808 14.0776 7.16451 13.9267L5.609 13.0356ZM12.5927 12.2887C12.7449 12.5502 12.6546 12.8846 12.391 13.0356L10.8355 13.9267C10.5719 14.0776 10.2349 13.988 10.0827 13.7265L10.0739 13.7113C9.92172 13.4498 10.012 13.1154 10.2756 12.9644L11.8311 12.0734C12.0947 11.9224 12.4317 12.012 12.5838 12.2735L12.5927 12.2887Z" fill="#273857"/>
<circle cx="8.99997" cy="9.00003" r="3.00003" fill="#BACC59"/>
</svg>
